X: 095
T: Miss Scott of Belvue's Reel
R: reel
B: William Shepherd "1st Collection" 1793 p.9 #5
F: http://imslp.org/wiki/File:PMLP73094-Shepherd_Collections_HMT.pdf
C: William Shepherd (17??-1812)
Z: 2012 John Chambers <jc:trillian.mit.edu>
N: The two segno signs really are above notes in the MS.
M: C|
L: 1/8
K: C
g |:!segno!\
ecTc2 {Bc}GcEc | ecTc2 {Bc}defa |\
ecTc2 {Bc}GcEc | FdEc DEFD :|
|: CE/F/ GE cEGE | CE/F/ GE DEFD |\
CE/F/ GE cEGE | FdEc DEF!segno!D :|
